X:1
T:Deo Gracias, LM
T:Deo Gracias, LM
T:“The Agincourt Song,” 1415
T:Public Domain Courtesy of the Cyber Hymnal™
C:“The Agincourt Song,” 1415
Z:Public Domain
Z:Courtesy of the Cyber Hymnal™
%%score ( 1 2 ) ( 3 4 )
L:1/8
M:3/4
K:Bb
V:1 treble 
V:2 treble 
V:3 bass 
V:4 bass 
V:1
 [Ec]2 | [Gc]4 [GB]2 | c4 [DB]2 | [FB]2 A4 | [DG]4 [Cc]2 | c2 B2 [EG]2 | [B,F]2 [EG]2 (FC) | %7
 [B,E]2 [B,D]4 | C4 [EG]2 | [FB]4 [EB]2 | [Cc]2 [DB]2 _A2 | [EG]2 F4 | E4 [CE]2 | [DG]4 [EG]2 | %14
 [DF]4 [B,E]2 | [CE]2 D4 | [G,C]6 |] %17
V:2
 x2 | x6 | G2 F2 x2 | x2 F3 E | x6 | F4 x2 | x4 C2 | x6 | x6 | x6 | x4 (EF) | x2 C2 D2 | E4 x2 | %13
 x6 | x6 | x2 C2 B,2 | x6 |] %17
V:3
 [C,C]2 | E4 [G,D]2 | [E,C]2 [F,A,]2 [G,B,]2 | [D,D]2 [F,C]4 | [G,B,]4 _A,2 | %5
 [_A,,C]2 [B,,D]2 [C,C]2 | [D,F,]2 [E,B,]2 [F,A,]2 | G,2 (A,2 F,2) | [C,E,]4 [C,C]2 | D4 [G,,B,]2 | %10
 [_A,,_A,]2 [B,,F,]2 C2 | [E,B,]2 [F,_A,]4 | [G,B,]4 _A,2 | B,4 [E,B,]2 | [B,,B,]4 [G,,E,]2 | %15
 [_A,,_A,]2 [B,,F,]4 | [C,E,]6 |] %17
V:4
 x2 | (C,2 E,2) x2 | x6 | x6 | x6 | x6 | x6 | x2 G,,4 | x6 | (B,,2 A,,2) x2 | x4 (C,D,) | x6 | %12
 x4 _A,2 | (G,2 F,2) x2 | x6 | x6 | x6 |] %17

